!!!!SEGMENT: pl-kk--kk-i-2--006-002_anonim--missa-iii-gloria.krn
!!!cenid: 16xx:1604
!!!COM: Anonim
!!!COM-rismID: pe30004985
!!!CDT:
!!!CNT:
!!!OPR: Missa III
!!!OTL: Gloria
!!!OMV: 002
!!!PDT:
!!!AGN: Sacred; Mass
!!!SMS-siglum: PL-Kk
!!!SMS-shelfmark: Kk.I.2
!!!SMS-shelfwork: 006-002 M
!!!NIFC-rismSourceID: 300258022
!!!NIFC-islandoraID: pl-kk:750
!!!URL-pdf-islandora: https://repozytorium.nifc.pl/islandora/object/pl-kk%3A750/datastream/PDF/view
!!!URL-scan: https://polish.musicsources.pl/pl/lokalizacje/galeria/rekopisy/5828 @EN{Scan on Polish Music Herritage in Open Access Website} @PL{Skany w portalu Dziedzictwo Muzyki Polskiej w otwartym dostępie}
!!!ONB-nifc: Części mszy: Kyrie, Gloria, Credo, Sanctus, Agnus Dei; skany: C: 0015-0016; A: 0115-0116; T: 0219-0220; B: 0318-0319;
!!!AIN: 1 alto 1 bass 1 soprn 1 tenor
!!!key:
**kern	**text	**kern	**text	**kern	**text	**kern	**text
*part4	*part4	*part3	*part3	*part2	*part2	*part1	*part1
*staff4	*staff4	*staff3	*staff3	*staff2	*staff2	*staff1	*staff1
*I"BASVS	*	*I"TENOR	*	*I"ALTVS	*	*I"DISCANTVS	*
*I'B	*	*I'T	*	*I'A	*	*I'S	*
*Ibass	*	*Itenor	*	*Ialto	*	*Isoprn	*
*ICvox	*	*ICvox	*	*ICvox	*	*ICvox	*
*clefC4	*	*clefC3	*	*clefC3	*	*clefG2	*
*k[b-]	*	*k[b-]	*	*k[b-]	*	*k[b-]	*
*F:	*	*F:	*	*F:	*	*F:	*
*M2/1	*	*M2/1	*	*M2/1	*	*M2/1	*
*met(C|)	*	*met(C|)	*	*met(C|)	*	*met(C|)	*
=1-	=1-	=1-	=1-	=1-	=1-	=1-	=1-
!LO:TX:a:t=3.	!	!	!	!	!	!	!
0r	.	1r	.	2.c/	Et	00r	.
.	.	.	.	4c/	in	.	.
.	.	2.F/	Et	2c/	ter-	.	.
!	!	!	!	!LO:TX:t=P:problem=kreska pseudotaktowa	!	!	!
.	.	.	.	2c/	-ra	.	.
!	!	!LO:TX:t=P:problem=kreska pseudotaktowa	!	!	!	!	!
.	.	4F/	in	.	.	.	.
=2-	=2-	=2-	=2-	=2-	=2-	=2-	=2-
!LO:TX:t=P:problem=kreska pseudotaktowa	!	!	!	!	!	!	!
1r	.	2F/	ter-	1.f	pax	.	.
.	.	2F/	-ra	.	.	.	.
2.C/	Et	1.c	pax	.	.	.	.
.	.	.	.	4e\	.	.	.
4C/	in	.	.	4d\	.	.	.
=3-	=3-	=3-	=3-	=3-	=3-	=3-	=3-
!	!	!	!	!	!	!LO:TX:t=P:problem=kreska pseudotaktowa	!
2C/	ter-	.	.	2e\	.	0r	.
!LO:TX:t=P:problem=kreska pseudotaktowa	!	!LO:TX:t=P:problem=kreska pseudotaktowa	!	!LO:TX:t=P:problem=kreska pseudotaktowa	!	!	!
2C/	-ra	2c\	ho-	2e\	ho-	.	.
2F/	pax	2d\	-mi-	2f\	-mi-	.	.
2G/	ho-	2d\	-ni-	2d\	.	.	.
=4-	=4-	=4-	=4-	=4-	=4-	=4-	=4-
2A/	-mi-	2c/	-bus	1f	.	1cc	Bo-
!	!	!LO:TX:t=P:problem=kreska pseudotaktowa	!	!	!	!	!
2F/	-(ni)-	2f\	bo-	.	.	.	.
!	!	!	!	!LO:TX:t=P:problem=kreska pseudotaktowa	!	!	!
2c\	-bus	2f\	-nae	1g	.	2cc\	nae
!LO:TX:t=P:problem=kreska pseudotaktowa	!	!	!	!	!	!LO:TX:t=P:problem=kreska pseudotaktowa	!
2c\	bo-	2e\	vo-	.	.	2cc\	vo-
=5-	=5-	=5-	=5-	=5-	=5-	=5-	=5-
2F/	-nae	4f\	-lun-	2f\	-ni-	2a/	-lun-
.	.	4e\	.	.	.	.	.
2A/	vo-	4d\	.	2f\	-bus	1cc	-ta-
!	!	!LO:TX:t=P:problem=kreska pseudotaktowa	!	!	!	!	!
.	.	4c\	.	.	.	.	.
2G/	-lun-	2d\	.	2g\	bo-	.	.
!	!	!	!	!LO:TX:t=P:problem=kreska pseudotaktowa	!	!LO:TX:t=P:problem=kreska pseudotaktowa	!
2G/	-ta-	2d\	-ta-	2g\	-nae	2b-/	-tis
=6-	=6-	=6-	=6-	=6-	=6-	=6-	=6-
!LO:TX:t=P:problem=kreska pseudotaktowa	!	!LO:TX:t=P:problem=kreska pseudotaktowa	!	!	!	!	!
1C	-tis	1c	-tis	2e\	vo-	2cc\	Lau-
.	.	.	.	2e\	-lun-	2cc\	-da-
2r	.	2r	.	2.f\	-ta-	2cc\	-mus
!	!	!	!	!	!	!LO:TX:t=P:problem=kreska pseudotaktowa	!
2F/	Lau-	2c/	Lau-	.	.	2cc\	te
!	!	!	!	!LO:TX:t=P:problem=kreska pseudotaktowa	!	!	!
.	.	.	.	4g\	.	.	.
=7-	=7-	=7-	=7-	=7-	=7-	=7-	=7-
2F/	-da-	2c/	-da-	2a\	-tis	2.ff\	Be-
2F/	-mus	2c/	-mus	2a\	Lau-	.	.
.	.	.	.	.	.	4ee\	.
2.B-/	te	2d/	Be-	2f\	-da-	2dd\	.
*	*	*custos:e	*	*	*	*	*
*	*	*	*	*custos	*	*	*
!	!	!	!	!LO:TX:t=P:problem=kreska pseudotaktowa	!	!	!
!	!	!LO:TX:t=P:problem=kreska pseudotaktowa	!	!	!	!LO:TX:t=P:problem=kreska pseudotaktowa	!
.	.	2d/	-ne-	2g\	-mus	2dd\	-ne-
4B-/	Be-	.	.	.	.	.	.
!	!	!LO:LB:g=original	!	!LO:PB:g=original	!	!	!
=8-	=8-	=8-	=8-	=8-	=8-	=8-	=8-
2A/	-ne-	2e\	-di-	1.a	te	2cc\	-di-
2F/	-di-	2f\	-ci-	.	.	2.dd\	-ci-
2A/	-ci-	4f\	-mus	.	.	.	.
.	.	4e\	.	.	.	4cc/	.
*custos:G	*	*	*	*	*	*	*
!LO:TX:t=P:problem=kreska pseudotaktowa	!	!	!	!	!	!	!
!	!	!	!	!LO:TX:t=P:problem=kreska pseudotaktowa	!	!	!
2A/	-mus	4d\	.	2f\	Be-	1cc/	.
.	.	4c\	.	.	.	.	.
!LO:PB:g=original	!	!	!	!	!	!	!
=9-	=9-	=9-	=9-	=9-	=9-	=9-	=9-
!	!	!LO:TX:t=P:problem=kreska pseudotaktowa	!	!	!	!	!
1G	te	1d	.	1g	-ne-	.	.
.	.	.	.	.	.	2b-/	-mus
!	!	!	!	!	!	!LO:TX:t=P:problem=kreska pseudotaktowa	!
2r	.	2c/	te	2e/	-di-	1cc	te
1A/	A-	1c\	A-	1e\	-ci-	.	.
=10-	=10-	=10-	=10-	=10-	=10-	=10-	=10-
.	.	.	.	.	.	2r	.
!LO:TX:t=P:problem=kreska pseudotaktowa	!	!LO:TX:t=P:problem=kreska pseudotaktowa	!	!LO:TX:t=P:problem=kreska pseudotaktowa	!	!	!
2A/	-do-	2c/	-do-	2e/	-mus	1cc	A-
1F	-ra-	1f	-ra-	1a	.	.	.
*	*	*	*	*	*	*custos:dd	*
!	!	!	!	!	!	!LO:TX:t=P:problem=kreska pseudotaktowa	!
.	.	.	.	.	.	2cc/	-do-
!	!	!	!	!	!	!LO:PB:g=original	!
=11-	=11-	=11-	=11-	=11-	=11-	=11-	=11-
1B-	-mus	1d	-mus	2f\	.	2dd/	-ra-
.	.	.	.	2g\	.	2dd/	-mus
!LO:TX:t=P:problem=kreska pseudotaktowa	!	!	!	!LO:TX:t=P:problem=kreska pseudotaktowa	!	!LO:TX:t=P:problem=kreska pseudotaktowa	!
1A	te	2e\	te	0a	te	1cc	te
!	!	!LO:TX:t=P:problem=kreska pseudotaktowa	!	!	!	!	!
.	.	2c/	Glo-	.	.	.	.
=12-	=12-	=12-	=12-	=12-	=12-	=12-	=12-
2r	.	2c/	-ri-	.	.	2r	.
2F/	Glo-	2c/	-fi-	.	.	2cc/	Glo-
2F/	-ri-	1f	-ca-	2r	.	2cc/	-ri-
2F/	-fi-	.	.	2f\	Glo-	2cc/	-fi-
=13-	=13-	=13-	=13-	=13-	=13-	=13-	=13-
1B-	-ca-	1.d	-mus	2f\	-ri-	1dd	-ca-
!	!	!	!	!LO:TX:t=P:problem=kreska pseudotaktowa	!	!	!
.	.	.	.	2f\	-fi-	.	.
!LO:TX:t=P:problem=kreska pseudotaktowa	!	!	!	!	!	!	!
1G	.	.	.	2g\	-ca-	1dd	-mus
!	!	!LO:TX:t=P:problem=kreska pseudotaktowa, między nutą a kropką	!	!	!	!	!
.	.	(<2.g\	.	2g\	.	.	.
=14-	=14-	=14-	=14-	=14-	=14-	=14-	=14-
!	!	!	!	!	!	!LO:TX:t=P:problem=kreska pseudotaktowa	!
2A/	.	.	.	2.c/	.	0cc	te
.	.	4f\)	.	.	.	.	.
2F/	.	1f	.	.	.	.	.
!	!	!	!	!LO:TX:t=P:problem=kreska pseudotaktowa	!	!	!
.	.	.	.	4d/	.	.	.
1c	.	.	.	4e\	.	.	.
.	.	.	.	4f\	.	.	.
!	!	!LO:TX:t=P:problem=kreska pseudotaktowa	!	!	!	!	!
.	.	2e\	.	2.g\	.	.	.
=15-	=15-	=15-	=15-	=15-	=15-	=15-	=15-
2A/	.	2f\	te	.	.	0r	.
.	.	.	.	4f\	.	.	.
*	*	*	*ij	*	*	*	*
!LO:TX:t=P:problem=kreska pseudotaktowa	!	!	!	!	!	!	!
2B-/	.	1d	Glo-	1f	.	.	.
1G	.	.	.	.	.	.	.
.	.	4c/	-ri-	2e\	-mus	.	.
!	!	!LO:TX:t=P:problem=kreska pseudotaktowa	!	!	!	!	!
.	.	4B-/	.	.	.	.	.
=16-	=16-	=16-	=16-	=16-	=16-	=16-	=16-
!	!	!	!	!LO:TX:t=P:problem=kreska pseudotaktowa	!	!	!
2F/	.	4c/	.	1f	te	2r	.
.	.	4F/	-fi-	.	.	.	.
!	!	!	!	!	!	!LO:TX:t=P:problem=kreska pseudotaktowa	!
2A/	.	1f	-ca-	.	.	2cc/	Gra-
1G	-mus	.	.	1r	.	2b-/	-ti-
*	*	*custos:f	*	*	*	*	*
!	!	!LO:TX:t=P:problem=kreska pseudotaktowa	!	!	!	!	!
.	.	2e\	-mus	.	.	2g/	-as
!	!	!LO:PB:g=original	!	!	!	!	!
=17-	=17-	=17-	=17-	=17-	=17-	=17-	=17-
!LO:TX:t=P:problem=kreska pseudotaktowa	!	!LO:TX:t=P:problem=kreska pseudotaktowa	!	!	!	!	!
1F	te	1f	te	2r	.	2.a/	a-
*	*	*	*Xij	*	*	*	*
!	!	!	!	!LO:TX:t=P:problem=kreska pseudotaktowa	!	!	!
.	.	.	.	2f\	Gra-	.	.
.	.	.	.	.	.	4b-/	.
!LO:TX:a:t=4.	!	!	!	!	!	!	!
!LO:TX:t=P:problem=kreska pseudotaktowa	!	!	!	!	!	!	!
00r	.	0r	.	2e\	-ti-	2cc/	.
!	!	!	!	!	!	!LO:TX:t=P:problem=kreska pseudotaktowa	!
.	.	.	.	2d\	-as	2dd/	-gi-
=18-	=18-	=18-	=18-	=18-	=18-	=18-	=18-
.	.	.	.	2f\	a-	2cc/	-mus
*	*	*	*	*custos:g	*	*	*
!	!	!	!	!LO:TX:t=P:problem=kreska pseudotaktowa	!	!	!
.	.	.	.	2f\	-gi-	2ff\	ti-
!	!	!	!	!LO:LB:g=original	!	!	!
.	.	2r	.	1g	-mus	2ee\	.
!	!	!LO:TX:t=P:problem=kreska pseudotaktowa	!	!	!	!	!
.	.	2G/	pro-	.	.	1dd\	.
=19-	=19-	=19-	=19-	=19-	=19-	=19-	=19-
.	.	2B-/	-pter	1g	ti-	.	.
.	.	2c/	ma-	.	.	4cc/	.
.	.	.	.	.	.	4b-/	.
!	!	!	!	!LO:TX:t=P:problem=kreska pseudotaktowa	!	!LO:TX:t=P:problem=kreska pseudotaktowa	!
2r	.	2d/	-gna(m)	1f	-bi	0a	-bi
2F/	pro-	2c/	glo-	.	.	.	.
=20-	=20-	=20-	=20-	=20-	=20-	=20-	=20-
2F/	-pter	1f	-ri-	00r	.	.	.
2F/	ma-	.	.	.	.	.	.
2.G/	gna(m)	2e/	-am	.	.	0r	.
.	.	1d\	tu-	.	.	.	.
*custos:G	*	*	*	*	*	*	*
!LO:TX:t=P:problem=kreska pseudotaktowa	!	!	!	!	!	!	!
4D/	.	.	.	.	.	.	.
!LO:LB:g=original	!	!	!	!	!	!	!
=21-	=21-	=21-	=21-	=21-	=21-	=21-	=21-
1G	glo-	.	.	.	.	.	.
.	.	4c/	.	.	.	.	.
!	!	!LO:TX:t=P:problem=kreska pseudotaktowa	!	!	!	!	!
.	.	4B-/	.	.	.	.	.
!	!	!	!	!	!	!LO:TX:t=P:problem=kreska pseudotaktowa	!
2F/	-ri-	2A/	.	.	.	1r	.
2D/	-a(m)	2.d/	.	.	.	.	.
=22-	=22-	=22-	=22-	=22-	=22-	=22-	=22-
!	!	!	!	!LO:TX:t=P:problem=kreska pseudotaktowa	!	!	!
2E/	tu-	.	.	1r	.	2.cc\	Do-
.	.	4c/	.	.	.	.	.
2F/	.	2.c/	.	.	.	.	.
*	*	*	*	*	*	*custos:dd	*
!	!	!	!	!	!	!LO:TX:t=P:problem=kreska pseudotaktowa	!
.	.	.	.	.	.	4cc\	-mi-
!	!	!	!	!	!	!LO:LB:g=original	!
1D	.	.	.	2.f\	Do-	2dd\	-ne
.	.	4B-/	.	.	.	.	.
!	!	!	!	!	!	!LO:TX:t=P:problem=kreska pseudotaktowa	!
.	.	4B-/	.	.	.	2dd\	De-
.	.	4A/	.	4f\	-mi-	.	.
=23-	=23-	=23-	=23-	=23-	=23-	=23-	=23-
!LO:TX:t=P:problem=kreska pseudotaktowa	!	!LO:TX:t=P:problem=kreska pseudotaktowa	!	!	!	!	!
1C	-am	1c	am	2g\	-ne	2.ee\	-(us)
!	!	!	!	!LO:TX:t=P:problem=kreska pseudotaktowa	!	!	!
.	.	.	.	2g\	de-	.	.
.	.	.	.	.	.	4dd\	.
1r	.	1r	.	2.a\	-us	2cc/	.
.	.	.	.	.	.	4ff\	rex
!	!	!	!	!	!	!LO:TX:t=P:problem=kreska pseudotaktowa	!
.	.	.	.	4g\	.	4ee\	.
=24-	=24-	=24-	=24-	=24-	=24-	=24-	=24-
2r	.	2r	.	2f\	rex	4dd\	.
.	.	.	.	.	.	4cc\	.
2c\	de-	1g	De-	2e\	cae-	1cc	-coe-
2G/	-us	.	.	1d	-le-	.	.
!LO:TX:t=P:problem=kreska pseudotaktowa	!	!LO:TX:t=P:problem=kreska pseudotaktowa	!	!	!	!	!
2B-/	pa-	2d/	-us	.	.	2b-/	-le-
=25-	=25-	=25-	=25-	=25-	=25-	=25-	=25-
!	!	!	!	!LO:TX:t=P:problem=kreska pseudotaktowa	!	!LO:TX:t=P:problem=kreska pseudotaktowa	!
2A/	-ter	2f\	pa-	0c	-ſt(is)	0cc	-ſtis
2F/	o-	2f\	-ter	.	.	.	.
1A	-mni-	2e/	o-	.	.	.	.
.	.	2c/	-mni-	.	.	.	.
=26-	=26-	=26-	=26-	=26-	=26-	=26-	=26-
2G/	-po-	2d/	-po-	0r	.	0r	.
2F/	.	1f	.	.	.	.	.
1G	.	.	.	.	.	.	.
*	*	*custos:f	*	*	*	*	*
!	!	!LO:TX:t=P:problem=kreska pseudotaktowa	!	!	!	!	!
.	.	2e\	ten-	.	.	.	.
!	!	!LO:LB:g=original	!	!	!	!	!
=27-	=27-	=27-	=27-	=27-	=27-	=27-	=27-
!LO:TX:t=P:problem=kreska pseudotaktowa	!	!LO:TX:t=P:problem=kreska pseudotaktowa	!	!	!	!	!
0F	-tens	0f	-tis	2.c/	Do-	2.cc\	Do-
.	.	.	.	4c/	-mi-	4cc\	-mi-
.	.	.	.	2c/	-ne	2cc\	-ne
!	!	!	!	!LO:TX:t=P:problem=kreska pseudotaktowa	!	!LO:TX:t=P:problem=kreska pseudotaktowa	!
.	.	.	.	2c/	fi-	2cc\	fi-
=28-	=28-	=28-	=28-	=28-	=28-	=28-	=28-
1r	.	0r	.	2f\	-li	2a/	-li
.	.	.	.	2d\	u-	2b-/	u-
2r	.	.	.	2e\	-ni-	2cc/	-ni-
!LO:TX:t=P:problem=kreska pseudotaktowa	!	!	!	!	!	!	!
2D/	Je-	.	.	2f\	-ge-	2.dd\	-ge-
=29-	=29-	=29-	=29-	=29-	=29-	=29-	=29-
1G	-ſu	1.B-	Je-	1.d	-ni-	.	.
.	.	.	.	.	.	4cc/	.
.	.	.	.	.	.	4b-/	.
!	!	!	!	!	!	!LO:TX:t=P:problem=kreska pseudotaktowa	!
.	.	.	.	.	.	4a/	.
1G	Chri-	.	.	.	.	2b-/	.
!	!	!LO:TX:t=P:problem=kreska pseudotaktowa	!	!LO:TX:t=P:problem=kreska pseudotaktowa	!	!	!
.	.	2c/	-ſu	2e\	-te	2b-/	-ni-
=30-	=30-	=30-	=30-	=30-	=30-	=30-	=30-
2F/	-ſte	2d/	Chri-	2f\	Je-	2a/	-te
*	*ij	*	*	*	*	*	*
2F/	Je-	1f	.	2c/	-ſu	2a/	Je-
*	*	*	*	*custos:f	*	*	*
!LO:TX:t=P:problem=kreska pseudotaktowa	!	!	!	!	!	!	!
1G	-ſu	.	.	1g	Chri-	1b-	-ſu
.	.	2e\	.	.	.	.	.
!	!	!	!	!LO:LB:g=original	!	!	!
=31-	=31-	=31-	=31-	=31-	=31-	=31-	=31-
*	*	*	*	*	*	*custos:cc	*
!	!	!	!	!	!	!LO:TX:t=P:problem=kreska pseudotaktowa	!
1B-	Chri-	1d	.	2.f\	-ſte	1dd	Chri-
!	!	!	!	!LO:TX:t=P:problem=kreska pseudotaktowa	!	!	!
.	.	.	.	4g\	.	.	.
!	!	!	!	!	!	!LO:LB:g=original	!
!	!	!	!	!	!	!LO:TX:t=P:problem=kreska pseudotaktowa	!
2A/	.	2e\	.	2a\	.	00cc	-ſte
*custos:c	*	*	*	*	*	*	*
!LO:TX:t=P:problem=kreska pseudotaktowa	!	!	!	!	!	!	!
2F/	.	1f\	.	1a\	Do-	.	.
!LO:LB:g=original	!	!	!	!	!	!	!
=32-	=32-	=32-	=32-	=32-	=32-	=32-	=32-
!LO:TX:t=P:problem=kreska pseudotaktowa	!	!	!	!	!	!	!
1c	-ſte	.	.	.	.	.	.
*	*Xij	*	*	*	*	*	*
!	!	!LO:TX:t=P:problem=kreska pseudotaktowa	!	!LO:TX:t=P:problem=kreska pseudotaktowa	!	!	!
.	.	2e\	.	2g\	-mi-	.	.
!	!	!LO:TX:t=P:problem=kreska pseudotaktowa	!	!	!	!	!
2r	.	1f	ſte	2a\	-ne	.	.
1F/	Do-	.	.	2f\	de-	.	.
=33-	=33-	=33-	=33-	=33-	=33-	=33-	=33-
.	.	2r	.	2.g\	-us	.	.
2E/	-mi-	1c	Do-	.	.	.	.
!	!	!	!	!LO:TX:t=P:problem=kreska pseudotaktowa	!	!	!
.	.	.	.	4g\	ag-	.	.
2F/	-ne	.	.	2f\	-nus	0r	.
!LO:TX:t=P:problem=kreska pseudotaktowa	!	!LO:TX:t=P:problem=kreska pseudotaktowa	!	!	!	!	!
2G/	de-	2B-/	-mi-	2d/	de-	.	.
=34-	=34-	=34-	=34-	=34-	=34-	=34-	=34-
2F/	-us	2c/	-ne	1f	-i	.	.
2D/	a-	2d/	De-	.	.	.	.
2.A/	-gnus	2c/	-us	2e\	fi-	1r	.
!	!	!LO:TX:t=P:problem=kreska pseudotaktowa	!	!LO:TX:t=P:problem=kreska pseudotaktowa	!	!	!
.	.	2f\	ag-	2c/	-li-	.	.
4B-/	.	.	.	.	.	.	.
=35-	=35-	=35-	=35-	=35-	=35-	=35-	=35-
!LO:TX:t=P:problem=kreska pseudotaktowa	!	!	!	!	!	!	!
1c	de-	2e\	-nus	4c/	-us	2r	.
.	.	.	.	4d/	.	.	.
.	.	2c/	De-	4e\	.	1cc	fi-
.	.	.	.	4f\	.	.	.
!	!	!	!	!LO:TX:t=P:problem=kreska pseudotaktowa	!	!	!
2G/	-i	1d	-i	1g	.	.	.
!	!	!	!	!	!	!LO:TX:t=P:problem=kreska pseudotaktowa	!
2G/	fi-	.	.	.	.	2b-/	-li-
=36-	=36-	=36-	=36-	=36-	=36-	=36-	=36-
2A/	-li-	2c/	fi-	2e/	.	1cc	-us
2F/	-us	1f	-li-	1a	pa-	.	.
1B-	p(a-	.	.	.	.	1dd	pa-
!	!	!LO:TX:t=P:problem=kreska pseudotaktowa	!	!LO:TX:t=P:problem=kreska pseudotaktowa	!	!	!
.	.	2d/	-us	2g\	.	.	.
=37-	=37-	=37-	=37-	=37-	=37-	=37-	=37-
!LO:TX:t=P:problem=kreska pseudotaktowa	!	!	!	!	!	!LO:TX:t=P:problem=kreska pseudotaktowa	!
1A	t)r(i)s	2f\	pa-	2.a\	.	1cc	-tris
.	.	2e\	.	.	.	.	.
.	.	.	.	4g\	.	.	.
!	!	!	!	!LO:TX:t=P:problem=kreska pseudotaktowa	!	!	!
2r	.	1d	.	1f	.	2r	.
2D/	Qui	.	.	.	.	2a/	qui
=38-	=38-	=38-	=38-	=38-	=38-	=38-	=38-
2.A/	tol-	2c\	-tris	2e\	-triſ	2.cc\	tol-
*	*	*custos:c	*	*	*	*	*
!	!	!LO:TX:t=P:problem=kreska pseudotaktowa	!	!	!	!	!
.	.	2F/	Qui	2c/	Qui	.	.
!	!	!	!	!	!	!LO:TX:t=P:problem=kreska pseudotaktowa	!
4A/	-lis	.	.	.	.	4cc\	-lis
!	!	!LO:LB:g=original	!	!	!	!	!
2A/	p(ec)-	2.c/	tol-	2.e\	tol-	2cc\	pec-
!LO:TX:t=P:problem=kreska pseudotaktowa	!	!	!	!	!	!	!
2A/	-c(a)-	.	.	.	.	2cc\	-ca-
*	*	*	*	*custos:f	*	*	*
!	!	!	!	!LO:TX:t=P:problem=kreska pseudotaktowa	!	!	!
.	.	4c/	-lis	4e\	-lis	.	.
!	!	!	!	!LO:LB:g=original	!	!	!
=39-	=39-	=39-	=39-	=39-	=39-	=39-	=39-
1F	-ta	2c/	pec-	2f\	pec-	1a	-ta
.	.	1d	-ca-	2f\	-ca-	.	.
1G	m(u-	.	.	2d\	-ta	1b-	mun-
!	!	!LO:TX:t=P:problem=kreska pseudotaktowa	!	!	!	!	!
.	.	2B-/	-ta	2e\	mun-	.	.
=40-	=40-	=40-	=40-	=40-	=40-	=40-	=40-
!	!	!	!	!LO:TX:t=P:problem=kreska pseudotaktowa	!	!	!
2F/	-n)di	1d	mun-	1f	-di	2a/	-di
*custos:A	*	*	*	*	*	*	*
!LO:TX:t=P:problem=kreska pseudotaktowa	!	!	!	!	!	!	!
!	!	!	!	!	!	!LO:TX:t=P:problem=kreska pseudotaktowa	!
2D/	Mi-	.	.	.	.	2ff\	mi-
!LO:LB:g=original	!	!	!	!	!	!	!
2.A/	-ſe-	1.c	-di	1r	.	2ee\	-ſe-
.	.	.	.	.	.	2cc/	-re-
4B-/	.	.	.	.	.	.	.
=41-	=41-	=41-	=41-	=41-	=41-	=41-	=41-
2c\	-re-	.	.	2r	.	2ee\	-re
!	!	!	!	!LO:TX:t=P:problem=kreska pseudotaktowa	!	!	!
2G/	-re	2B-/	mi-	2g\	mi-	2.dd\	no-
1A	no-	2c/	-ſe-	2e\	-ſe-	.	.
.	.	.	.	.	.	4cc/	.
.	.	2c/	-re-	2f\	-re-	1cc\	.
=42-	=42-	=42-	=42-	=42-	=42-	=42-	=42-
!LO:TX:t=P:problem=kreska pseudotaktowa	!	!	!	!LO:SIC:v:l:s=-re	!	!	!
1G	-bis	2d\	re	2g\	-rere	.	.
.	.	2d\	no-	2g\	no-	2b-/	.
!	!	!LO:TX:t=P:problem=kreska pseudotaktowa	!	!	!	!LO:TX:t=P:problem=kreska pseudotaktowa	!
2r	.	1c	-bis	2e\	-bis	0cc	-bis
!	!	!	!	!LO:TX:t=P:problem=kreska pseudotaktowa	!	!	!
2C/	Qui	.	.	2e\	Qui	.	.
=43-	=43-	=43-	=43-	=43-	=43-	=43-	=43-
2.F/	tol-	2r	.	2.f\	tol-	.	.
.	.	2F/	Qui	.	.	.	.
4F/	-lis	.	.	4f\	-lis	.	.
2F/	p(ec)-	2.c/	tol-	2f\	pec-	2r	.
*	*	*	*	*	*	*custos:cc	*
!	!	!	!	!LO:TX:t=P:problem=kreska pseudotaktowa	!	!	!
2F/	-c(a)-	.	.	2f\	-ca-	2f/	Qui-
!	!	!LO:TX:t=P:problem=kreska pseudotaktowa	!	!	!	!	!
.	.	4c/	-lis	.	.	.	.
!	!	!	!	!	!	!LO:LB:g=original	!
=44-	=44-	=44-	=44-	=44-	=44-	=44-	=44-
2A/	.	2c/	pec-	2e\	-ta	1.cc	-tol-
2A/	-ta	2c/	-ca-	2f\	.	.	.
1G	m(un)-	2d\	-ta	2.g\	mun-	.	.
!	!	!	!	!	!	!LO:TX:t=P:problem=kreska pseudotaktowa	!
.	.	2d\	mun-	.	.	2b-\	-lis
!	!	!	!	!LO:TX:t=P:problem=kreska pseudotaktowa	!	!	!
.	.	.	.	4f\	.	.	.
=45-	=45-	=45-	=45-	=45-	=45-	=45-	=45-
!	!	!LO:TX:t=P:problem=kreska pseudotaktowa	!	!	!	!	!
1C	.	1c	-di	4e\	.	2cc\	pec-
.	.	.	.	4d\	.	.	.
.	.	.	.	1c	.	2cc\	-ca-
!LO:TX:t=P:problem=kreska pseudotaktowa	!	!	!	!	!	!	!
1G	-di	0r	.	.	.	2dd\	-ta
!	!	!	!	!LO:TX:t=P:problem=kreska pseudotaktowa	!	!	!
.	.	.	.	2B-/	.	2dd\	mun-
=46-	=46-	=46-	=46-	=46-	=46-	=46-	=46-
!	!	!	!	!	!	!LO:TX:t=P:problem=kreska pseudotaktowa	!
2r	.	.	.	2c/	di	1cc	-di
1F	ſuſ-	.	.	1f	Suſ-	.	.
.	.	1.c	Suſ-	.	.	1.a	Suſ-
2F/	-ci-	.	.	2f\	-ci-	.	.
=47-	=47-	=47-	=47-	=47-	=47-	=47-	=47-
!LO:TX:t=P:problem=kreska pseudotaktowa	!	!	!	!LO:TX:t=P:problem=kreska pseudotaktowa	!	!	!
1F	-pe	.	.	1f	-pe	.	.
.	.	2c/	-ci-	.	.	2a/	-ci-
*	*	*	*	*custos:e	*	*	*
!	!	!LO:TX:t=P:problem=kreska pseudotaktowa	!	!	!	!LO:TX:t=P:problem=kreska pseudotaktowa	!
2r	.	1c	-pe	2r	.	1a	-pe
!	!	!	!	!LO:LB:g=original	!	!	!
!	!	!	!	!LO:TX:t=P:problem=kreska pseudotaktowa	!	!	!
2c\	de-	.	.	2e\	de-	.	.
=48-	=48-	=48-	=48-	=48-	=48-	=48-	=48-
2.c\	-pre-	2r	.	2.e\	-pre-	1r	.
.	.	2c/	de-	.	.	.	.
!LO:TX:t=P:problem=kreska pseudotaktowa	!	!	!	!	!	!	!
4B-/	.	.	.	4d\	.	.	.
2A/	-ca-	2.c/	-prae-	2c\	.	1cc	de-
!	!	!	!	!LO:TX:t=P:problem=kreska pseudotaktowa	!	!	!
2G/	-ti-	.	.	2e\	-ca-	.	.
*	*	*custos:A	*	*	*	*	*
!	!	!LO:TX:t=P:problem=kreska pseudotaktowa	!	!	!	!	!
.	.	4B-/	.	.	.	.	.
!	!	!LO:LB:g=original	!	!	!	!	!
=49-	=49-	=49-	=49-	=49-	=49-	=49-	=49-
2F/	-o-	2A/	-ca	2f\	-ti-	2.cc/	-prae-
2E/	-ne(m)	2G/	-ti-	2.g\	-o-	.	.
!	!	!	!	!	!	!LO:TX:t=P:problem=kreska pseudotaktowa	!
.	.	.	.	.	.	4b-/	.
1F	no-	2.A/	-o-	.	.	2a/	-ca-
.	.	.	.	4f\	.	.	.
.	.	.	.	1f\	-ne(m)	2f/	-ti-
.	.	4B-/	-nem	.	.	.	.
=50-	=50-	=50-	=50-	=50-	=50-	=50-	=50-
!LO:TX:t=P:problem=kreska pseudotaktowa	!	!	!	!	!	!	!
1C	-ſtra(m)	1G	no-	.	.	2g/	-o-
!	!	!	!	!LO:TX:t=P:problem=kreska pseudotaktowa	!	!	!
.	.	.	.	2e\	no-	2g/	-nem
*custos:F	*	*	*	*	*	*	*
!	!	!LO:TX:t=P:problem=kreska pseudotaktowa	!	!LO:TX:t=P:problem=kreska pseudotaktowa	!	!	!
2r	.	1F	-ſtram	1f	-ſtra(m)	2.a/	no-
!LO:LB:g=original	!	!	!	!	!	!	!
!LO:TX:t=P:problem=kreska pseudotaktowa	!	!	!	!	!	!	!
2F/	Qui	.	.	.	.	.	.
.	.	.	.	.	.	4b-/	.
=51-	=51-	=51-	=51-	=51-	=51-	=51-	=51-
!	!	!	!	!	!	!LO:TX:t=P:problem=kreska pseudotaktowa	!
2C/	ſe-	2r	.	2r	.	0cc	-ſtram
2.F/	-des	2c/	Qui	1f	Qui	.	.
.	.	2F/	ſe-	.	.	.	.
4G/	.	.	.	.	.	.	.
!LO:TX:t=P:problem=kreska pseudotaktowa	!	!	!	!LO:TX:t=P:problem=kreska pseudotaktowa	!	!	!
2A/	.	1c\	-des	2e\	ſe-	.	.
=52-	=52-	=52-	=52-	=52-	=52-	=52-	=52-
2G/	ad	.	.	2.g\	-des	00r	.
!	!	!LO:TX:t=P:problem=kreska pseudotaktowa	!	!	!	!	!
2G/	dex-	2B-/	ad	.	.	.	.
.	.	.	.	4f\	.	.	.
2A/	-te-	2c/	dex-	2e\	.	.	.
!	!	!	!	!LO:TX:t=P:problem=kreska pseudotaktowa	!	!	!
2F/	-ra(m)	1d\	-te-	2f\	ad	.	.
=53-	=53-	=53-	=53-	=53-	=53-	=53-	=53-
1G	pa-	.	.	2d/	dex-	.	.
.	.	2B-/	-ram	2e\	-te-	.	.
2F/	.	2.c/	pa-	2f\	-ra(m)	.	.
!	!	!	!	!LO:TX:t=P:problem=kreska pseudotaktowa, między nutą a kropką	!	!	!
2C/	.	.	.	(<2.g\	pa-	.	.
!	!	!LO:TX:t=P:problem=kreska pseudotaktowa	!	!	!	!	!
.	.	4B-/	.	.	.	.	.
=54-	=54-	=54-	=54-	=54-	=54-	=54-	=54-
1D	.	2A/	.	.	.	1r	.
.	.	.	.	4f\)	.	.	.
.	.	4G/	.	1f	.	.	.
.	.	4F/	.	.	.	.	.
1C	.	1G	.	.	.	2r	.
!	!	!	!	!LO:TX:t=P:problem=kreska pseudotaktowa	!	!LO:TX:t=P:problem=kreska pseudotaktowa	!
.	.	.	.	2e/	.	2cc\	mi-
=55-	=55-	=55-	=55-	=55-	=55-	=55-	=55-
!LO:TX:t=P:problem=kreska pseudotaktowa	!	!LO:TX:t=P:problem=kreska pseudotaktowa	!	!	!	!	!
0F	-tris	1A	tris	2f\	tris	2cc\	-ſe-
.	.	.	.	2f\	Mi-	2cc\	-re-
.	.	2r	.	2f\	-se-	2a/	-re
.	.	2B-/	mi-	2f\	-re-	2.ff\	no-
=56-	=56-	=56-	=56-	=56-	=56-	=56-	=56-
*	*	*	*	*custos:g	*	*	*
!	!	!	!	!LO:TX:t=P:problem=kreska pseudotaktowa	!	!	!
00r	.	2B-/	-ſe-	1d	-re	.	.
*	*	*	*	*	*	*custos:dd	*
.	.	.	.	.	.	4ee\	.
!	!	!LO:TX:t=P:problem=kreska pseudotaktowa	!	!	!	!LO:LB:g=original	!
.	.	2B-/	-re-	.	.	1dd	.
!	!	!	!	!LO:PB:g=original	!	!	!
.	.	4G/	-re	1g	no-	.	.
.	.	4A/	.	.	.	.	.
.	.	4B-/	.	.	.	4cc/	.
!	!	!	!	!	!	!LO:TX:t=P:problem=kreska pseudotaktowa	!
.	.	4c/	.	.	.	4b-/	.
=57-	=57-	=57-	=57-	=57-	=57-	=57-	=57-
.	.	2d/	.	2f\	.	2a/	.
!	!	!	!	!LO:TX:t=P:problem=kreska pseudotaktowa	!	!	!
.	.	2B-/	no-	2d/	.	2.dd\	.
*	*	*custos:G	*	*	*	*	*
!	!	!LO:TX:t=P:problem=kreska pseudotaktowa	!	!	!	!	!
.	.	1c	-bis	2.e/	.	.	.
.	.	.	.	.	.	4cc\	.
.	.	.	.	.	.	1cc\	.
.	.	.	.	4f\	.	.	.
!	!	!LO:LB:g=original	!	!	!	!	!
=58-	=58-	=58-	=58-	=58-	=58-	=58-	=58-
!LO:TX:t=P:problem=kreska pseudotaktowa	!	!	!	!LO:TX:t=P:problem=kreska pseudotaktowa	!	!	!
1r	.	2G/	Quo-	1d	-b(is)	.	.
!	!	!	!	!	!	!LO:TX:t=P:problem=kreska pseudotaktowa	!
.	.	4G/	-ni-	.	.	2b-/	.
!	!	!LO:TX:t=P:problem=kreska pseudotaktowa	!	!	!	!	!
.	.	4G/	-am	.	.	.	.
2F/	Quo-	2.A/	tu	2f\	Quo-	1cc,<	-bis
4F/	-ni-	.	.	4f\	-ni-	.	.
4F/	-a(m)	4B-/	.	4f\	-a(m)	.	.
=59-	=59-	=59-	=59-	=59-	=59-	=59-	=59-
2A/	tu	2c/	.	2e\	tu	2cc\	Quo-
!	!	!LO:TX:t=P:problem=kreska pseudotaktowa	!	!LO:TX:t=P:problem=kreska pseudotaktowa	!	!	!
2A/	ſol-	2c/	ſol-	2f\	ſol-	4cc\	-ni-
.	.	.	.	.	.	4cc\	-am
2G/	.	2d\	-lus	2g\	-us	2b-/	tu
2C/	-us	2e\	ſan-	2g\	ſan-	2g/	ſol-
=60-	=60-	=60-	=60-	=60-	=60-	=60-	=60-
*lig	*	*	*	*	*	*	*
1F	ſan-	2f\	-ctus	2c/	-ctus	1a	-us
.	.	1d	ſan-	1f	Tu	.	.
1G	.	.	.	.	.	1b-	ſan-
.	.	4c/	.	2e/	.	.	.
!	!	!LO:TX:t=P:problem=kreska pseudotaktowa	!	!	!	!	!
.	.	4B-/	.	.	.	.	.
*Xlig	*	*	*	*	*	*	*
=61-	=61-	=61-	=61-	=61-	=61-	=61-	=61-
2F/	-ctus	2c/	.	2f\	ſol-	2a/	-ctus
!	!	!	!	!	!	!LO:TX:t=P:problem=kreska pseudotaktowa	!
2D/	tu	2d/	.	2f\	-lus	2a/	Tu
!	!	!LO:TX:t=P:problem=kreska pseudotaktowa	!	!	!	!	!
2A/	ſol-	1c	-ctus	2e\	do-	2cc/	ſol-
*custos:G	*	*	*	*	*	*	*
!LO:TX:t=P:problem=kreska pseudotaktowa	!	!	!	!	!	!	!
2F/	-us	.	.	2f\	.	2cc/	-lus
!LO:PB:g=original	!	!	!	!	!	!	!
=62-	=62-	=62-	=62-	=62-	=62-	=62-	=62-
2G/	do-	1r	.	2d\	.	2b-/	do-
!	!	!	!	!LO:TX:t=P:problem=kreska pseudotaktowa	!	!	!
2G/	-mi-	.	.	2e\	.	2b-/	-mi-
!LO:TX:t=P:problem=kreska pseudotaktowa	!	!	!	!	!	!LO:TX:t=P:problem=kreska pseudotaktowa	!
1F	-nus	2r	.	2.f\	.	1a	-nus
.	.	1c\	Tu	.	.	.	.
.	.	.	.	8e/	.	.	.
.	.	.	.	8d/	.	.	.
=63-	=63-	=63-	=63-	=63-	=63-	=63-	=63-
2r	.	.	.	2e/	.	2r	.
!	!	!LO:TX:t=P:problem=kreska pseudotaktowa	!	!	!	!	!
1F	tu	2c/	-ſol-	2f\	mi-	1cc	Tu
*	*	*	*	*custos:f	*	*	*
!	!	!	!	!LO:TX:t=P:problem=kreska pseudotaktowa	!	!	!
.	.	2c/	-lus	1f	-nus	.	.
!LO:TX:t=P:problem=kreska pseudotaktowa	!	!	!	!	!	!	!
2F/	ſol-	2c/	al-	.	.	2cc\	ſol-
!	!	!	!	!LO:LB:g=original	!	!	!
=64-	=64-	=64-	=64-	=64-	=64-	=64-	=64-
2F/	-us	2.f\	-ti-	2r	.	2cc\	-lus
!	!	!	!	!LO:TX:t=P:problem=kreska pseudotaktowa	!	!	!
2F/	al-	.	.	2f\	tu	2cc\	al-
!	!	!LO:TX:t=P:problem=kreska pseudotaktowa	!	!	!	!	!
.	.	4e\	.	.	.	.	.
1B-	-tiſ-	4d\	.	2f\	ſol-	1dd	-ti-
.	.	4c\	.	.	.	.	.
.	.	2.B-/	-ſsi-	1d\	-lus	.	.
=65-	=65-	=65-	=65-	=65-	=65-	=65-	=65-
*	*	*	*	*	*	*custos:a	*
1G	-ſi-	.	.	.	.	1b-	-ſsi-
.	.	4A/	.	.	.	.	.
.	.	4B-/	.	2d/	al-	.	.
!	!	!LO:TX:t=P:problem=kreska pseudotaktowa	!	!	!	!	!
.	.	4c/	.	.	.	.	.
!	!	!	!	!	!	!LO:PB:g=original	!
!LO:TX:t=P:problem=kreska pseudotaktowa	!	!	!	!	!	!LO:TX:t=P:problem=kreska pseudotaktowa	!
1F	-mus	2d/	.	2f\	-tiſ-	0a	-mus
.	.	2c/	.	2f\	-si-	.	.
=66-	=66-	=66-	=66-	=66-	=66-	=66-	=66-
*	*	*custos:c	*	*	*	*	*
!	!	!LO:TX:t=P:problem=kreska pseudotaktowa	!	!	!	!	!
2r	.	1c	-mus	2e\	.	.	.
!	!	!	!	!LO:TX:t=P:problem=kreska pseudotaktowa	!	!	!
2F/	Je-	.	.	2f\	-mus	.	.
!	!	!LO:PB:g=original	!	!	!	!	!
1F	-ſu	2r	.	2c/	.	2r	.
!	!	!LO:TX:t=P:problem=kreska pseudotaktowa	!	!	!	!	!
.	.	2c/	Je-	1f\	Je-	2a/	Je-
=67-	=67-	=67-	=67-	=67-	=67-	=67-	=67-
!LO:TX:t=P:problem=kreska pseudotaktowa	!	!	!	!	!	!	!
1D	Chri-	1d	-ſu	.	.	2a/	-ſu
.	.	.	.	2f\	-ſu	2.b-/	Chri-
*lig	*	*	*	*	*	*	*
1F	.	2c/	Chri-	1f	Chri-	.	.
.	.	.	.	.	.	4a/	.
.	.	2A/	.	.	.	1a/	-ſte
=68-	=68-	=68-	=68-	=68-	=68-	=68-	=68-
!	!	!LO:TX:t=P:problem=kreska pseudotaktowa	!	!	!	!	!
1G	.	1B-	.	2.d\	.	.	.
.	.	.	.	.	.	2g/	.
.	.	.	.	4e\	.	.	.
!	!	!	!	!	!	!LO:TX:t=P:problem=kreska pseudotaktowa	!
*Xlig	*	*	*	*	*	*	*
!	!	!	!	!LO:TX:t=P:problem=kreska pseudotaktowa	!	!	!
4D/	.	2A/	.	1f	ſte	2.a/	.
4E/	.	.	.	.	.	.	.
4F/	.	2f\	.	.	.	.	.
4G/	.	.	.	.	.	4b-/	.
=69-	=69-	=69-	=69-	=69-	=69-	=69-	=69-
2A/	.	2e\	.	1r	.	2cc/	.
!LO:TX:t=P:problem=kreska pseudotaktowa	!	!LO:TX:t=P:problem=kreska pseudotaktowa	!	!	!	!	!
2B-/	.	2d\	.	.	.	2.dd\	.
2F/	.	4f\	.	1c	Cu(m)	.	.
.	.	4e\	.	.	.	4cc/	.
2A/	.	4d\	.	.	.	1cc\	.
.	.	4c\	.	.	.	.	.
=70-	=70-	=70-	=70-	=70-	=70-	=70-	=70-
1G	-ſte	1d	.	1.g	ſan-	.	.
!	!	!	!	!	!	!LO:TX:t=P:problem=kreska pseudotaktowa	!
.	.	.	.	.	.	2b-/	.
!	!	!LO:TX:t=P:problem=kreska pseudotaktowa	!	!	!	!	!
2r	.	0c	ſte	.	.	2cc,<\	.
!LO:TX:t=P:problem=kreska pseudotaktowa	!	!	!	!LO:TX:t=P:problem=kreska pseudotaktowa	!	!	!
2C/	Cui	.	.	2e/	.	2g/	cum
=71-	=71-	=71-	=71-	=71-	=71-	=71-	=71-
2.F/	ſ(an)-	.	.	1f	.	2.a/	ſan-
!	!	!	!	!	!	!LO:TX:t=P:problem=kreska pseudotaktowa	!
4F/	-cto	.	.	.	.	4a/	-cto
2F/	ſpi-	2r	.	1d	-cto	2a/	ſpi-
*custos:A	*	*	*	*	*	*	*
!LO:TX:t=P:problem=kreska pseudotaktowa	!	!	!	!	!	!	!
2G/	-ri-	2G/	in	.	.	2b-/	-ri-
!LO:LB:g=original	!	!	!	!	!	!	!
=72-	=72-	=72-	=72-	=72-	=72-	=72-	=72-
!LO:TX:t=P:problem=kreska pseudotaktowa	!	!	!	!	!	!	!
1A	-tu	2.c/	glo-	2.c/	ſpi-	1cc	.
!	!	!	!	!LO:TX:t=P:problem=kreska pseudotaktowa	!	!	!
.	.	4c/	-ri-	4d/	.	.	.
!LO:TX:t=P:problem=kreska pseudotaktowa	!	!	!	!	!	!	!
1r	.	2c/	-a	2e\	.	2a/	.
!	!	!LO:TX:t=P:problem=kreska pseudotaktowa	!	!	!	!	!
.	.	2B-/	de-	1f\	.	2b-/	.
=73-	=73-	=73-	=73-	=73-	=73-	=73-	=73-
1C	in	2c/	-i	.	.	1g	.
.	.	2c/	pa-	2e\	-ri-	.	.
!	!	!	!	!LO:TX:t=P:problem=kreska pseudotaktowa	!	!LO:TX:t=P:problem=kreska pseudotaktowa	!
2.F/	glo-	2.A/	-tris	1f	-tu	0a	-tu
4F/	-ri-	4B-/	.	.	.	.	.
=74-	=74-	=74-	=74-	=74-	=74-	=74-	=74-
2F/	-a	2c/	.	2r	.	.	.
*	*	*	*	*custos:f	*	*	*
!LO:TX:t=P:problem=kreska pseudotaktowa	!	!	!	!LO:TX:t=P:problem=kreska pseudotaktowa	!	!	!
2F/	de-	2A/	.	2c/	in	.	.
!	!	!	!	!LO:LB:g=original	!	!	!
2D/	-i	1d	.	2.f\	glo-	2r	.
*	*	*	*	*	*	*custos:cc	*
!	!	!	!	!	!	!LO:TX:t=P:problem=kreska pseudotaktowa	!
2D/	pa-	.	.	.	.	2f/	in
.	.	.	.	4f\	-ri-	.	.
!	!	!	!	!	!	!LO:LB:g=original	!
=75-	=75-	=75-	=75-	=75-	=75-	=75-	=75-
!	!	!LO:TX:t=P:problem=kreska pseudotaktowa	!	!	!	!	!
2.F/	.	1c	.	2f\	-a	2.cc\	glo-
!	!	!	!	!LO:TX:t=P:problem=kreska pseudotaktowa	!	!	!
.	.	.	.	2f\	de-	.	.
!LO:TX:t=P:problem=kreska pseudotaktowa	!	!	!	!	!	!	!
4G/	.	.	.	.	.	4cc\	-ri-
*	*	*custos:F	*	*	*	*	*
1A	-tris	2r	.	2e\	-i	2cc\	-a
!	!	!LO:LB:g=original	!	!	!	!LO:TX:t=P:problem=kreska pseudotaktowa	!
.	.	2F/	in	2c/	pa-	2cc\	de-
=76-	=76-	=76-	=76-	=76-	=76-	=76-	=76-
2F/	A-	2c/	glo-	2f\	-tris	2a/	-i
!	!	!LO:TX:t=P:problem=kreska pseudotaktowa	!	!LO:TX:t=P:problem=kreska pseudotaktowa	!	!	!
2G/	.	2B-/	-ri-	2d\	A-	2b-/	pa-
2F/	.	2.c/	-a	2f\	.	2a/	-tris
2C/	.	.	.	2e\	.	2.g/	A-
.	.	4B-/	de-	.	.	.	.
=77-	=77-	=77-	=77-	=77-	=77-	=77-	=77-
1D	.	2A/	-i	2d\	.	.	.
.	.	.	.	.	.	4f/	.
.	.	2F/	p(a-	2B-/	.	1f	.
1C	.	2G/	-t)ris	1c	.	.	.
.	.	2G/	A-	.	.	2e/	.
=78-	=78-	=78-	=78-	=78-	=78-	=78-	=78-
0Fl\;	-men	0Fl;	-men	0cl;	-men.	0fl;	-men
==	==	==	==	==	==	==	==
*-	*-	*-	*-	*-	*-	*-	*-
!!!system-decoration: [(*)]
!!!RDF**kern: < = below
!!!RDF**kern: l = terminal long
!!!ENC: Marta Opryszak
!!!END: 2022-01-05
!!!ENC: Andrzej Kubiczek
!!!END: 2022-01-06
